images/icons/projects.svg

<svg width="75" height="75" viewBox="0 0 75 75" fill="none" xmlns="http://www.w3.org/2000/svg">
<path d="M24.8542 48.8769C24.6042 49.4816 24.6042 50.0788 24.6042 50.6798C24.8543 52.5976 26.2543 54.0073 27.8918 53.9813H31.9356V71.6984C31.9356 73.5013 30.673 75 29.1543 75H20.5542C19.8186 74.9913 19.1153 74.64 18.5957 74.0218C18.0761 73.4036 17.7818 72.568 17.7761 71.6947V53.985H3.10097C0.825951 53.985 -0.69281 51.2807 0.319697 48.8769L22.0699 2.03558C22.3578 1.41875 22.7797 0.904676 23.2916 0.546725C23.8034 0.188775 24.3867 0 24.9808 0C25.5749 0 26.1582 0.188775 26.6701 0.546725C27.1819 0.904676 27.6038 1.41875 27.8918 2.03558L36.995 22.7538L24.8542 48.8769ZM74.6827 48.8769L52.9326 2.03558C52.6444 1.41965 52.2226 0.906426 51.711 0.549098C51.1995 0.19177 50.6167 0.00334275 50.0232 0.00334275C49.4296 0.00334275 48.8469 0.19177 48.3353 0.549098C47.8238 0.906426 47.402 1.41965 47.1138 2.03558L37.7543 22.7575L49.8951 48.8732C50.1482 49.4816 50.1482 50.0825 50.1482 50.6798C49.8982 52.5976 48.495 54.0073 46.8607 53.9813H42.8106V71.6984C42.8263 73.5162 44.0606 74.9889 45.5919 75H54.6982C55.4344 74.9923 56.1387 74.6422 56.6599 74.0249C57.1811 73.4076 57.4776 72.5723 57.4857 71.6984V53.985H71.8983C74.1796 53.985 75.6921 51.2807 74.6796 48.8769H74.6827Z" fill="#034694"/>
</svg>

<svg xmlns="http://www.w3.org/2000/svg" fill="none" viewBox="0 0 75 75"><path fill="#034694" d="M24.854 48.877c-.25.605-.25 1.202-.25 1.803.25 1.918 1.65 3.327 3.288 3.301h4.044v17.717c0 1.803-1.263 3.302-2.782 3.302h-8.6c-.735-.009-1.439-.36-1.958-.978-.52-.618-.814-1.454-.82-2.327v-17.71H3.101c-2.275 0-3.794-2.704-2.781-5.108L22.07 2.036c.288-.617.71-1.131 1.222-1.49A2.94 2.94 0 0 1 24.98 0a2.94 2.94 0 0 1 1.69.547c.51.358.933.872 1.22 1.489l9.104 20.718-12.14 26.123zm49.829 0L52.933 2.036A3.725 3.725 0 0 0 51.71.549a2.94 2.94 0 0 0-1.688-.546 2.94 2.94 0 0 0-1.688.546c-.511.357-.933.87-1.221 1.487l-9.36 20.721 12.141 26.116c.253.609.253 1.21.253 1.807-.25 1.918-1.653 3.327-3.287 3.301h-4.05v17.717c.015 1.818 1.25 3.29 2.78 3.302h9.107c.736-.008 1.44-.358 1.962-.975.521-.617.818-1.453.826-2.327V53.985h14.412c2.282 0 3.794-2.704 2.782-5.108h.003z"/></svg>
